X:1
T:Vitam quae faciunt
T:Vitam quae faciunt
T:Jacob Arcadelt 
C:Jacob Arcadelt
%%score [ 1 2 3 4 ]
L:1/8
Q:1/4=120
M:2/2
K:F
V:1 treble nm="Soprano" snm="S"
V:2 treble nm="Alto" snm="A"
V:3 treble-8 nm="Tenor" snm="T"
V:4 bass nm="Bass" snm="B"
V:1
|: G4 G2 ^F2 | G2 A2 B4 | B2 A4 G2 | A4 ^F4 | z2 F2 G2 A2 | A2 G2 ^F2 G2 | A2 G4 ^F2 || %7
w: 1.Vi- tam quae|fa- ci- unt|be- a- ti-|o- rem,|ju- cun- dis-|si- me Mar- ti-|a- lis quae|
w: 2.Som- num nec|me- tu- as|di- em nec|op- tes,||||
"^Al Fine" G4 z4 | G4 B2 A2 | B2 c2 d4 | d2 c4 B2 | A4 A4 | z2 A2 B2 c2 | c2 B2 A2 A2 | F4 G2 A2- | %15
w: sunt:|res non par-|ta la- bo-|re, sed re-|li- cta,|non in- gra-|tus a- ger, fo-|cus per- en-|
w: ||||||||
 AG G4 FE | F2 F2 z2 D2 | D4 D4 | z2 F4 F2 | F4 F4 | z2 F2 E2 D2 | D4 z2 D2 | D2 F2 F2 E2 | %23
w: |* nis, lis|nun- quam,|to- ga|ra- ra,|mens qui- e-|ta, vi-|res in- ge- nu-|
w: ||||||||
 D4 G2 F2- | F2 E2 D4 | D4 z2 D2 | D2 F2 G2 A2 | B4 B2 A2- | A2 G2 A4 |"^-natural" ^F4 z2 F2 | %30
w: ae, sa- lu-|* bre cor-|pus, pru-|dens sim- pli- ci-|tas, pa- res|_ a- mi-|ci, con-|
w: |||||||
 G2 A2 A2 G2 |"^-natural" ^F4 z2 F2 | G2 A4 G2- | G2 ^F2 G4 | z2 B4 B2 | c2 c2 d4 | z8 | %37
w: vi- ctus fa- ci-|lis, si-|ne ar- te|_ men- sa,|nox non|e- bri- a,||
w: |||||||
 z2 A2 A2 A2 | B4 A2 F2- | F2 F2 G2 G2 | A4 B4 | z4 d4 | c2 A2 B2 c2 | A2 A2 B2 G2- | G2 ^F2 G4 | %45
w: non tri- stis|thp- rus, at-|* ta- men pu-|di- cus,|som-|nus qui fa- ci-|at bre- ves te|_ ne- bras,|
w: ||||||||
 z4 F4 | GFGA B2 B2 | A2 G2 ^F4 |"^-natural" z2 F2 DEFG | A2 G4 ^F2 | G4 z4!fine! :| G8 |] %52
w: quod|sis _ _ _ _ es-|se ve- lis,|ni- hil _ _ _|_ que ma-|lis,|sunt.|
w: |||||||
V:2
|: D4 D2 D2 | E2 F2 F4 | F2 F4 E2 | D4 D4 | z2 D2 E2 F2 | F2 E2 D2 C2 | A,2 D2 D4 || D4 z4 | %8
w: 1.Vi- tam quae|fa- ci- unt|be- a- ti-|o- rem,|ju- cun- dis-|si- me Mar- ti-|a- lis quae|sunt:|
w: 2.Som- mer nec|me- tu- as|di- em nec|op- tes,|||||
 D4 E2 F2 | D2 G2 F4 | F2 A2 A2 GF |"^#" ED E2 F4 |"^-natural" z2 F2 F2 G2 | G2 F2 E4 | D4 E2 F2 | %15
w: res non par-|ta la- bo-|re, sed re- li- *|* * * cta,|non in- gra-|tus a- ger,|fo- cus per-|
w: |||||||
 D4 D4- | D4 z2 A,2 | A,4 B,4 | z2 D4 D2 | D4 C4 | z2 D2 C2 A,2 | B,4 z2 B,2 | B,2 A,2 B,2 C2 | %23
w: en- nis,|_ lis|nun- quam,|to- ga|ra- ra,|mens qui- e-|ta, vi-|ves in- ge- nu-|
w: ||||||||
 A,4 D2 D2- | D2 C2 B,4 | A,4 z2 A,2 | A,2 D2 D2 F2 | F4 F2 F2- | F2 E2 D4 | D4 z2 D2 | %30
w: ae, sa- lu-|* bre cor-|pus, pru-|dens sim- pli- ci-|tas, pa- res|_ a- mi-|ci, con-|
w: |||||||
 E2 F2 F2 E2 | D4 z2 D2 | C2 A,2 F2 E2 | D8 | z2 G4 G2 | F2 E2 D4- | D4 z4 | z2 F2 F2 F2 | %38
w: vi- ctus fa- ci-|lis, si-|ne ar- te men-|sa,|nox non|e- bri- a,|_|non tri- stis|
w: ||||||||
 G4 F2 D2- | D2 D2 E2 E2 | F4 D4 | z4 F4 | F2 C2 G2 G2 | F4 D2 _E2 | C2 C2 B,4 | z4 D4 | E4 F4 | %47
w: tho- rus, at-|* ta- men pu-|di- cus,|som-|nus qui fa- ci-|at bre- ves|te- ne- bras,|quod|sis es-|
w: |||||||||
 F2 E2 D4 | D2 C2 B,2 A,2 | F2 E2 D4- | D4 z4 :| =B,8 |] %52
w: se ve- lis,|ni- * hil que|ma- * lis,|_|sunt.|
w: |||||
V:3
|: G4 B2 A2 | B2 c2 d4 | d2 c4 B2 | A4 A4 | z2 A2 B2 c2 | c2 B2 A2 G2 | c2 B2 A4 || G4 z4 | %8
w: 1.Vi- tam quae|fa- ci- unt|be- a- ti-|o- rem,|ju- cun- dis-|si- me Mar- ti-|a- lis quae|sunt:|
w: 2.Som- mer nec|me- tu- as|di- em nec|op- tes,|||||
 B4 B2 c2 | B2 G2 A4 | AF f3 e d2- |"^#" d2 c2 d4 | z2 d2 d2 _e2 | _e2 d2 c4 | B4 B2 c2- | %15
w: res non par-|ta la- bo-|re sed re- * *|* li- cta,|non in- gra-|tus a- ger,|fo- cus per-|
w: |||||||
 c2 B4 AG |"^-natural" A2 A2 z2 F2 | F4 F4 | z2 B4 B2 | B4 A4 | z2 B2 G2 F2 | z2 G4 G2 | %22
w: * en- * *|* nis, lis|nun- quam,|to- ga|ra- ra,|mens qui- e-|ta, vi-|
w: |||||||
 G2 F2 G2 A2 | F4 B2 B2- | BAGF G2 G2 |"^#""^#""^-natural" F2 F2 z2 F2 | F2 A2 B2 c2 | d4 d2 c2- | %28
w: res in- ge- nu-|ae, sa- lu-|* * * * * bre|cor- pus, pru-|dens sim- pli- ci-|tas, pa- res|
w: ||||||
 c2 B2 A4 | A4 z2 d2 | e2 f2 f2 e2 | A4 z2 A2 | G2 c4 B2 | A4 G4- | G4 z4 | z4 z2 A2 | %36
w: _ a- mi-|ci, con-|vi- ctus fa- ci-|lis, si-|ne ar- te|men- sa,|_|sed|
w: ||||||||
 B2 B2 c2 c2 | d8 | z4 z2 A2- | A2 A2 B2 B2 | c4 B4 | z4 B4 | A2 A2 d2 _e2 | d4 d2 G2 | A2 A2 d4 | %45
w: so- lu- ta cu-|ris,|at-|* ta- men pu-|di- cus,|som-|nus qui fa- ci-|at bre- ves|te- ne- bras,|
w: |||||||||
 z4 A4 | c4 d4 | c2 B2 A4- | A4 z2 d2 | c2 B2 A4 | G4 z4 :| G8 |] %52
w: qud|sis es-|se ve- lis,|_ ni-|hil- que ma-|lis,|sunt.|
w: |||||||
V:4
|: G,4 G,2 D,2 | G,2 F,2 B,,4 | B,,2 F,4 G,2 | D,4 D,4 | z2 D,2 G,2 F,2 | F,2 G,2 D,2 E,2 | %6
w: 1.Vi- tam quae|fa- ci- unt|be- a- ti-|o- rem,|Ju- cun- dis-|si- me Mar- ti-|
w: 2.Som- mer nec|me- tu- as|di- em nec|op- tes,|||
 F,2 G,2 D,4 || G,,4 z4 | G,4 G,2 F,2 | G,2 E,2 D,4 | D,2 F,4 G,2 | A,4 D,4 | z2 D,2 D,2 C,2 | %13
w: a- lis quae|sunt:|res non par-|ta la- bo-|re sed re-|li- cta,|non in- gra-|
w: |||||||
 C,2 D,2 A,,4 | B,,4 G,,2 F,,2 | G,,4 D,4- | D,4 z2 D,2 | D,4 B,,4 | z2 B,,4 B,,2 | B,,4 F,4 | %20
w: tus a- ger,|fo- cus per-|en- nis,|_ lis|nun- quam,|to- ga|ra- ra,|
w: |||||||
 z2 B,,2 C,2 D,2 | G,,4 z2 G,,2 | G,,2 D,2 D,2 C,2 | D,4 G,,2 B,,2- | B,,2 C,2 G,,4 | D,4 z2 D,2 | %26
w: mens qui- e-|ta, vi-|res in- ge- nu-|ae, sa- lu-|* bre cor-|pus, pru-|
w: ||||||
 D,2 D,2 G,2 F,2 | B,,4 B,,2 F,2- | F,2 G,2 D,4 | D,4 z2 D,2 | G,2 F,2 F,2 G,2 | D,4 z2 D,2 | %32
w: dens sim- pli- ci-|tas, pa- res|_ a- mi-|ci, con-|vi- ctus fa- ci-|lis, si-|
w: ||||||
 E,2 F,4 G,2 | D,4 G,,4- | G,,4 z4 | z4 z2 D,2 | G,2 G,2 F,2 E,2 | D,8 | z4 z2 D,2- | %39
w: ne ar- te|men- sa,|_|sed|so- lu- ta cu-|ris,|at-|
w: |||||||
 D,2 D,2 G,2 G,2 | F,4 B,,4 | z4 B,,4 | F,2 F,2 G,2 C,2 | D,4 B,,2 C,2 | A,,2 A,,2 G,,4 | z4 D,4 | %46
w: * ta- men pu-|di- cus,|som-|nus qui fa- ci-|at bre- ves|te- ne- bras,|quod|
w: |||||||
 C,4 B,,C,D,E, | F,2 G,2 D,4 | D,2 F,2 G,2 D,2 | F,2 G,2 D,4 | G,4 z4 :| G,,8 |] %52
w: sis es- * * *|se ve- lis,|ni- hil- que ma-||lis,|sunt.|
w: ||||||

